Assets/Icons/expression/information-circle.svg

<svg enable-background="new 0 0 60 60" viewBox="0 0 60 60" xmlns="http://www.w3.org/2000/svg"><path d="m30 1.5c-15.71 0-28.5 12.79-28.5 28.5s12.79 28.5 28.5 28.5 28.5-12.79 28.5-28.5-12.79-28.5-28.5-28.5zm0 54c-14.06 0-25.5-11.44-25.5-25.5s11.44-25.5 25.5-25.5 25.5 11.44 25.5 25.5-11.44 25.5-25.5 25.5z"/><path d="m32.02 25.22c-1.01-.02-1.99-.01-2.95.04s-1.81.12-2.56.22c-.19.02-.34.09-.43.2-.1.11-.14.26-.14.45v2.27c0 .19.05.34.16.45s.25.15.44.15h1.37v13.39c0 .19.05.34.16.45s.26.16.45.16h3.49c.19 0 .34-.05.45-.16s.16-.26.16-.45v-16.56c0-.19-.05-.34-.16-.45-.1-.11-.25-.16-.44-.16z"/><path d="m30.32 17.01c-.84 0-1.55.29-2.14.86-.59.58-.88 1.28-.88 2.12s.29 1.55.88 2.14 1.3.88 2.14.88 1.55-.29 2.14-.88.88-1.3.88-2.14-.29-1.55-.88-2.12c-.58-.57-1.3-.86-2.14-.86z"/></svg>

<?xml version="1.0" encoding="utf-8"?>
<!-- Generator: Adobe Illustrator 21.1.0, SVG Export Plug-In . SVG Version: 6.00 Build 0)  -->
<svg version="1.1" id="eps" xmlns="http://www.w3.org/2000/svg" xmlns:xlink="http://www.w3.org/1999/xlink" x="0px" y="0px"
	 viewBox="0 0 60 60" style="enable-background:new 0 0 60 60;" xml:space="preserve">
<g>
	<path d="M30,1.5C14.29,1.5,1.5,14.29,1.5,30S14.29,58.5,30,58.5S58.5,45.71,58.5,30S45.71,1.5,30,1.5z M30,55.5
		C15.94,55.5,4.5,44.06,4.5,30S15.94,4.5,30,4.5S55.5,15.94,55.5,30S44.06,55.5,30,55.5z"/>
	<path d="M32.02,25.22c-1.01-0.02-1.99-0.01-2.95,0.04c-0.96,0.05-1.81,0.12-2.56,0.22c-0.19,0.02-0.34,0.09-0.43,0.2
		c-0.1,0.11-0.14,0.26-0.14,0.45v2.27c0,0.19,0.05,0.34,0.16,0.45S26.35,29,26.54,29h1.37v13.39c0,0.19,0.05,0.34,0.16,0.45
		S28.33,43,28.52,43h3.49c0.19,0,0.34-0.05,0.45-0.16s0.16-0.26,0.16-0.45V25.83c0-0.19-0.05-0.34-0.16-0.45
		C32.36,25.27,32.21,25.22,32.02,25.22z"/>
	<path d="M30.32,17.01c-0.84,0-1.55,0.29-2.14,0.86c-0.59,0.58-0.88,1.28-0.88,2.12s0.29,1.55,0.88,2.14
		c0.59,0.59,1.3,0.88,2.14,0.88s1.55-0.29,2.14-0.88c0.59-0.59,0.88-1.3,0.88-2.14s-0.29-1.55-0.88-2.12
		C31.88,17.3,31.16,17.01,30.32,17.01z"/>
</g>
</svg>
